X:1
T:Mon treste cueur
T:Mon treste cueur
T:Josquin Baston
C:Josquin Baston
%%score [ 1 [ 2 3 ] 4 ]
L:1/8
Q:1/4=80
M:2/2
K:C
V:1 treble nm="Superius" snm="S"
V:2 treble-8 nm="Tenor 1" snm="T 1"
V:3 treble-8 nm="Tenor 2" snm="T 2"
V:4 bass nm="Bassus" snm="B"
V:1
 G8 | G4 A4 | G8 | z4 z2 G2 | G2 G2 c4- | c2 B2 A2 DE | FG AG/A/ B2 A2- | AG G4 F2 | G8- | G4 z4 | %10
w: Mon|tri- ste|cueur,|plain|de me- lan-|* co- ly- * *|||e,|_|
 z2 C2 C2 C2 | G2 G2 G3 A | B2 c4 BA | B2 G3 A Bc | d2 e4 dc | BG c4 B2 | c4 z4 | z2 G2 A2 A2 | %18
w: au de- par-|tir pour vous, _|_ doul- * *|ce'a- my- * * *|||e,|re- ceut ung|
 G4 z2 C2 | G3 F E2 DC | D4 C2 G2 | c2 c2 B3 A | G2 A3 G G2- |"^#" G2 F2 G4 | z2 G2 F4- | %25
w: dueil qui|tous les jours aug- *|men- te, qui|tous les jours aug-|men- * * *|* * te,|in ces-|
 F2 F2 E4 | z8 | G4 E2 F2 | GA Bc d2 cB | AG B4 AG | A3 G/A/ Bc B2- | B2 A3 G G2- | G2 F2 G4- | %33
w: * sa- ment,||et à mort|me _ _ _ _ _ _|_ _ tour- men- *|||* * te,|
 G4 z2 G2 | G3 F E4 |: z2 c2 c2 B2 | A2 B2 B2 A2 | c2 c2 B2 EF | GA BA/B/ cA B2 | c2 d3 c c2- | %40
w: _ es-|tant ab- sent,|es- tant ab-|sent de vos- tre|com- pai- gni- * *|||
 c2 B2 c2 G2 |1 G3 F E4 :|2 c2 B2 c4- || c8 |] %44
w: * * e, es-|tant ab- sent,|(gni)- * e.|_|
V:2
 e8 | dc de f2 f2 | d2 d2 d2 d2 | g3 f e2 d2 | z2 c2 c2 c2 | g6 f2 | fe dc BA d2- | d2 c2 d4 | %8
w: Mon|tri- * * * * ste|cueur, plain de me-|lan- co- ly- e,|plain de me-|lan- co-|ly- * * * * * *|* * e,|
 z2 e2 e2 e2 | d3 c B2 B2 | G2 g2 gffe/f/ | d2 G2 G2 G2 | d2 c2 e2 e2 | d3 c BA B2 | G2 g4 f2 | %15
w: au de- par-|tir pour vous ma|doul- ce'a- my- * * * *|e, au de- par-|tir pour vous ma|doul- ce'a- my- * *||
 g2 a2 g4- | g4 z2 d2 | e2 e2 AB cd | e2 e2 e2 f2 | e2 d3 c c2- | c2 B2 c4 | z2 A2 d3 c | %22
w: * * e,|_ re-|ceut ung dueil _ _ _|_ qui tous les|jours aug- * men-|* * te,|qui tous le|
 B2 A2 B2 c2 | d4 z2 e2 | e4 c4 | c4 z2 c2 | A2 B2 c2 A2 | d2 c4 BA | BG g2 g2 e2 | f2 g4 fe | %30
w: jours aug- men- *|te, in-|ces- sa-|ment, et|à mort me tour-|men- * * *|||
 f g2 f g4- | g2 fe d2 e2 | z2 c2 c2 B2 | B4 z2 d2 | e3 d cd ef |: g4 z4 | z2 g2 g2 f2 | %37
w: |* * * * te,|es- tant ab-|sent, es-|tant- ab- sent, _ _ _|_|es- tant ab-|
 e2 e2 d2 c2 | g3 f/g/ a2 d2 | a6 f2 | g2 g2 g3 f |1 e2 e2 cd ef :|2 g4 e4- || e8 |] %44
w: sent de vos- tre|com- * * * pai-|gni- *|e, es- tant _|_ ab- sent _ _ _|(gni)- e.|_|
V:3
 c8 | B4 c4- | c2 BA B2 d2 | d2 d2 g3 f | ed e4 dc | d8 | z2 d2 d2 A2 | B2 AG A4 | G4 z2 G2 | %9
w: Mon|tri- ste|_ _ _ cueur, plain|de me- lan- *|* * co- ly- *|e,|plain de me-|lan- co- * ly-|e, au|
 G2 G2 d2 d2 | d2 e2 e2 dc | B3 c d4 | G4 z2 G2 | G2 G2 d4 | z2 c2 c3 d | e2 f2 d4 | c2 c2 A2 B2 | %17
w: de- par- tir pour|vous ma doul- ce'a- *|my- * *|e, au|de- par- tir|pour vous _|_ ma- my-|e, re- ceut ung|
 c8 | z2 G2 A2 A2 | G4 z2 c2 | g3 f e2 e2 | e2 f2 d2 G2 | d3 c B2 AG | A4 G2 G2 | G4 A4- | %25
w: dueil|qui tous les|jours aug-|men- * te, qui|tous les jours aug-|men- * * * *|* te, in-|ces- sa-|
 A4 G2 G2 | c2 d2 e2 dc | B2 G2 z4 | d4 B2 c2 | d2 B2 e4 | d6 cd | e2 c2 B4 | c4 d2 d2 | d3 c B4 | %34
w: * ment, et|à mort me tour- *|men- te,|et à mort|me tour men-|||* te, es-|tant ab- sent,|
 z2 g2 g3 f |: e2 e2 c2 d2 | c2 d2 e2 c2 | z2 g2 g3 f | e2 d2 e2 gf | ed f2 e2 dc | d4 c4 |1 %41
w: es- tant ab-|sent de vos- tre|com- pai- gni- e,|es- tant ab-|sent de vos- tre _|_ _ com- pai- * *|gni- e,|
 z2 g2 g3 f :|2 d4 c4- || c8 |] %44
w: es- tant ab-|gni- e.|_|
V:4
 C,8 | G,4 F,4 | G,8 |"^#" G,4 G,2 G,2 | C3 B, A,4 | G,4 z2 D,2 | D,2 D,2 G,2 F,2 | E,4 D,4 | %8
w: Mon|tris- te|cueur,|plain de me-|lan- co- ly-|e, plain|de me- lan- co-|ly- e,|
 z2 C,2 C,2 C,2 | G,2 G,2 G,3 A, | B,2 C2 A,4 | G,4 z4 | z2 C,2 C,2 C,2 | G,2 G,2 G,3 A, | %14
w: au de- par-|tir pour vous ma|doul- ce'a- my-|e,|au de- par-|tir pour vous ma|
 B,2 C2 A,4 | G,2 F,2 G,4 | z2 C,2 D,2 D,2 | C,2 C,2 F,2 F,2 | E,4 z4 | z2 G,2 A,2 A,2 | %20
w: doul- ce'a- my-|* * e,|re- ceut ung|dueil, re- ceut ung|dueil,|qui tous les|
 G,2 G,2 C3 B, | A,2 F,2 G,4- | G,2 F,2 G,2 E,2 | D,4 z2 C,2 | E,4 F,4- | F,4 C,4 | %26
w: jours aug- men- *|||te, in-|ces- sa-|* ment,|
 z2 G,2 E,2 F,2 | G,2 E,2 A,4 | G,4 z4 | z8 | z4 G,4 | E,2 F,2 G,2 E,2 | A,4 G,4 | z2 G,2 G,3 F, | %34
w: et à mort|me tour- men-|te,||et|à mort me tour-|men- te,|es- tant ab-|
 E,4 z2 C2 |: C3 B, A,2 G,2 | A,2 G,2 E,2 F,2 | C,D, E,F, G,2 C2 | C2 B,2 A,2 G,2 | %39
w: sent, es-|tant ab- sent de|vos- tre com- pai-|gni- * * * e, es-|tant ab- sent de|
 A,2 F,2 A,2 A,2 | G,4 C,4- |1 C,4 z2 C2 :|2 G,4 C,4- || C,8 |] %44
w: vos- tre com- pai-|gni- e,|_ es-|gni- e.|_|

